X:1
T: Jerry's Beaver Hat
C:
R:Jig
Q:180
K:D
M:6/8
L:1/16
D2|D2F2A2 d4e2|f2d2B2 B2A2F2|A2B2A2 A2F2D2|E2F2E2 E4D2|D2F2A2 d4e2|f2d2B2 B2A2F2|A2B2A2 d2A2F2|D2E2D2 D4D2|
D2F2A2 d4e2|f2d2B2 B2A2F2|A2B2A2 A2F2D2|E2F2E2 E4D2|D2F2A2 d4e2|f2d2B2 B2A2F2|A2B2A2 d2A2F2|D2E2D2 D4d2|
d2f2a2 a2f2d2|g2b2g2 f2a2f2|d2f2a2 a2f2d2|e2c2c2 c4f2|d2f2a2 a2f2d2|g2b2g2 f2a2f2|B2d2B2 A2F2A2|D2E2D2 D4d2|
d2f2a2 a2f2d2|g2b2g2 f2a2f2|d2f2a2 a2f2d2|e2c2c2 c4f2|d2f2a2 a2f2d2|g2b2g2 f2a2f2|B2d2B2 A2F2A2|D2E2D2 D4||
